X:2
T:Lady Mary Ramsay's Reel
T:Lady Mary Ramsay [1]
R:reel
S:Rev. R. Harrison's MS, RH.417, c. 1815, Cumbria
O:England
A:Temple Sowerby, Cumbria
Z:vmp.Simon Wilson. Review PJH, 2008.
M:C|
L:1/8
K:Bm
F|D3B AFFB|A<FBG AFFd|D3B AFFA|BEAF E/E/E E:|!
|:d/e/|fd-df ecce|dBBd AFF d/e/|fddf ecdA|Bd AF E/E/E Ed/e/|!
fd-df ecce|dfBd AFFA|dfce BdAB|FdAF E/E/E E|]

